**harm	**harte	**timestamp	**phrase	**leadinstrument	**kern
*M4/4	*M4/4	*	*	*	*
*C:	*C:	*	*	*	*C:
1r;	N	0	.	r	1r;
=1	=1	=1	=1	=1	=1
*>I_fadein	*>I_fadein	*>I_fadein	*>I_fadein	*>I_fadein	*>I_fadein
1IVd	F:maj/7	1.355	newline	r	1f 1a 1cc
=2	=2	=2	=2	=2	=2
1iii	E:min	4.755	.	r	1E 1g 1b
=3	=3	=3	=3	=3	=3
1IVd	F:maj/7	8.156	.	r	1f 1a 1cc
=4	=4	=4	=4	=4	=4
1iii	E:min	11.556	.	r	1E 1g 1b
=5	=5	=5	=5	=5	=5
1IVd	F:maj/7	14.956	newline	r	1f 1a 1cc
=6	=6	=6	=6	=6	=6
1iii	E:min	18.525	.	r	1E 1g 1b
=7	=7	=7	=7	=7	=7
1IVd	F:maj/7	22.093	.	r	1f 1a 1cc
=8	=8	=8	=8	=8	=8
1iii	E:min	25.661	.	r	1E 1g 1b
=9	=9	=9	=9	=9	=9
*>A_verse	*>A_verse	*>A_verse	*>A_verse	*>A_verse	*>A_verse
1I	C:maj	29.229	newline	r	1C 1e 1g
=10	=10	=10	=10	=10	=10
1iii	E:min	32.812	.	r	1E 1g 1b
=11	=11	=11	=11	=11	=11
1I	C:maj	36.394	.	r	1C 1e 1g
=12	=12	=12	=12	=12	=12
1iii	E:min	39.977	.	r	1E 1g 1b
=13	=13	=13	=13	=13	=13
2vi	A:min	43.559	newline	r	2A 2cc 2ee
2vid	A:min/b7	45.363	.	r	2a 2cc 2ee
=14	=14	=14	=14	=14	=14
1IIb	D:maj/3	47.167	.	r	1d 1F# 1a
=15	=15	=15	=15	=15	=15
*>A_verse	*>A_verse	*>A_verse	*>A_verse	*>A_verse	*>A_verse
1I	C:maj	50.776	newline	r	1C 1e 1g
=16	=16	=16	=16	=16	=16
1iii	E:min	54.333	.	r	1E 1g 1b
=17	=17	=17	=17	=17	=17
1I	C:maj	57.89	.	r	1C 1e 1g
=18	=18	=18	=18	=18	=18
1iii	E:min	61.447	.	r	1E 1g 1b
=19	=19	=19	=19	=19	=19
2vi	A:min	65.004	newline	r	2A 2cc 2ee
2vid	A:min/b7	66.819	.	r	2a 2cc 2ee
=20	=20	=20	=20	=20	=20
1IIb	D:maj/3	68.633	.	r	1d 1F# 1a
=21	=21	=21	=21	=21	=21
1r	N	72.262	.	r	1r
=22	=22	=22	=22	=22	=22
1r	N	75.891	.	r	1r
=23	=23	=23	=23	=23	=23
1Im7	C:7	79.52	.	r	1C 1e 1g 1b
=24	=24	=24	=24	=24	=24
*>B_chorus	*>B_chorus	*>B_chorus	*>B_chorus	*>B_chorus	*>B_chorus
1I	C:maj	83.148	newline	r	1C 1e 1g
=25	=25	=25	=25	=25	=25
1III7	E:7	86.702	.	r	1E 1g# 1b 1dd
=26	=26	=26	=26	=26	=26
1IV	F:maj	90.256	.	r	1F 1a 1cc
=27	=27	=27	=27	=27	=27
2iv	F:min	93.81	.	r	2F 2a- 2cc
2I	C:maj	95.586	.	r	2C 2e 2g
=28	=28	=28	=28	=28	=28
1IV	F:maj	97.363	newline	r	1F 1a 1cc
=29	=29	=29	=29	=29	=29
2iv	F:min	100.901	.	r	2F 2a- 2cc
2I	C:maj	102.669	.	r	2C 2e 2g
=30	=30	=30	=30	=30	=30
1IV	F:maj	104.438	.	r	1F 1a 1cc
=31	=31	=31	=31	=31	=31
1I	C:maj	107.976	newline	r	1C 1e 1g
=32	=32	=32	=32	=32	=32
1III7	E:7	111.534	.	r	1E 1g# 1b 1dd
=33	=33	=33	=33	=33	=33
1IV	F:maj	115.093	.	r	1F 1a 1cc
=34	=34	=34	=34	=34	=34
2iv	F:min	118.652	.	r	2F 2a- 2cc
2I	C:maj	120.431	.	r	2C 2e 2g
=35	=35	=35	=35	=35	=35
1IV	F:maj	122.21	newline	r	1F 1a 1cc
=36	=36	=36	=36	=36	=36
2iv	F:min	125.705	.	r	2F 2a- 2cc
2I	C:maj	127.452	.	r	2C 2e 2g
=37	=37	=37	=37	=37	=37
1IV	F:maj	129.199	.	r	1F 1a 1cc
=38	=38	=38	=38	=38	=38
1IV7	F:maj7	132.693	newline	r	1F 1a 1cc 1ee
=39	=39	=39	=39	=39	=39
1iii	E:min	136.237	.	r	1E 1g 1b
=40	=40	=40	=40	=40	=40
1IVd	F:maj/7	139.782	.	r	1f 1a 1cc
=41	=41	=41	=41	=41	=41
1iii	E:min	143.326	.	r	1E 1g 1b
=42	=42	=42	=42	=42	=42
2-VII	B-:maj	146.87	newline	r	2B- 2dd 2ff
2vi	A:min	148.626	.	r	2A 2cc 2ee
=43	=43	=43	=43	=43	=43
*M2/4	*M2/4	*M2/4	*M2/4	*M2/4	*M2/4
2V	G:maj	150.382	.	r	2G 2b 2dd
=44	=44	=44	=44	=44	=44
*M4/4	*M4/4	*M4/4	*M4/4	*M4/4	*M4/4
1IV	F:maj	152.137	.	r	1F 1a 1cc
=45	=45	=45	=45	=45	=45
*>D_instrumental	*>D_instrumental	*>D_instrumental	*>D_instrumental	*>D_instrumental	*>D_instrumental
4I	C:maj	155.649	newline	r	4C 4e 4g
4IV	F:maj	156.478	.	r	4F 4a 4cc
4V	G:maj	157.307	.	r	4G 4b 4dd
4VI	A:maj	158.136	.	r	4A 4cc# 4ee
=46	=46	=46	=46	=46	=46
4I	C:maj	158.966	.	r	4C 4e 4g
4IV	F:maj	159.795	.	r	4F 4a 4cc
4V	G:maj	160.624	.	r	4G 4b 4dd
4VI	A:maj	161.453	.	r	4A 4cc# 4ee
=47	=47	=47	=47	=47	=47
1IV7	F:maj7	162.282	newline	r	1F 1a 1cc 1ee
=48	=48	=48	=48	=48	=48
1iii	E:min	165.779	.	r	1E 1g 1b
=49	=49	=49	=49	=49	=49
1VI	A:maj	169.276	.	r	1A 1cc# 1ee
=50	=50	=50	=50	=50	=50
1I	C:maj	172.773	newline	r	1C 1e 1g
=51	=51	=51	=51	=51	=51
1IIe	D:maj/2	176.206	.	r	1D 1f# 1a
=52	=52	=52	=52	=52	=52
1III7	E:7	179.639	.	r	1E 1g# 1b 1dd
=53	=53	=53	=53	=53	=53
*>B_chorus	*>B_chorus	*>B_chorus	*>B_chorus	*>B_chorus	*>B_chorus
1I	C:maj	183.072	newline	r	1C 1e 1g
=54	=54	=54	=54	=54	=54
1III7	E:7	186.576	.	r	1E 1g# 1b 1dd
=55	=55	=55	=55	=55	=55
1IV	F:maj	190.079	.	r	1F 1a 1cc
=56	=56	=56	=56	=56	=56
2iv	F:min	193.583	.	r	2F 2a- 2cc
2I	C:maj	195.334	.	r	2C 2e 2g
=57	=57	=57	=57	=57	=57
1IV	F:maj	197.086	newline	r	1F 1a 1cc
=58	=58	=58	=58	=58	=58
2iv	F:min	200.576	.	r	2F 2a- 2cc
2I	C:maj	202.321	.	r	2C 2e 2g
=59	=59	=59	=59	=59	=59
1IV	F:maj	204.066	.	r	1F 1a 1cc
=60	=60	=60	=60	=60	=60
1V	G:maj	207.556	newline	r	1G 1b 1dd
=61	=61	=61	=61	=61	=61
1III7	E:7	210.459	.	r	1E 1g# 1b 1dd
=62	=62	=62	=62	=62	=62
2vi	A:min	213.361	.	r	2A 2cc 2ee
2vid	A:min/b7	214.812	.	r	2a 2cc 2ee
=63	=63	=63	=63	=63	=63
1IIb	D:maj/3	216.263	.	r	1d 1F# 1a
=64	=64	=64	=64	=64	=64
1I	C:maj	219.165	.	r	1C 1e 1g
=65	=65	=65	=65	=65	=65
1V	G:maj	222.068	.	r	1G 1b 1dd
=66	=66	=66	=66	=66	=66
1IV7	F:maj7	224.97	newline	r	1F 1a 1cc 1ee
=67	=67	=67	=67	=67	=67
1iii	E:min	228.434	.	r	1E 1g 1b
=68	=68	=68	=68	=68	=68
1IV7	F:maj7	231.898	.	r	1F 1a 1cc 1ee
=69	=69	=69	=69	=69	=69
1iii	E:min	235.362	.	r	1E 1g 1b
=70	=70	=70	=70	=70	=70
2-VII	B-:maj	238.826	newline	r	2B- 2dd 2ff
2vi	A:min	240.549	.	r	2A 2cc 2ee
=71	=71	=71	=71	=71	=71
*M2/4	*M2/4	*M2/4	*M2/4	*M2/4	*M2/4
2V	G:maj	242.272	.	r	2G 2b 2dd
=72	=72	=72	=72	=72	=72
*M4/4	*M4/4	*M4/4	*M4/4	*M4/4	*M4/4
1IV	F:maj	243.996	.	r	1F 1a 1cc
=73	=73	=73	=73	=73	=73
*>D_instrumental	*>D_instrumental	*>D_instrumental	*>D_instrumental	*>D_instrumental	*>D_instrumental
4I	C:maj	247.442	newline	r	4C 4e 4g
4IV	F:maj	248.278	.	r	4F 4a 4cc
4V	G:maj	249.113	.	r	4G 4b 4dd
4VI	A:maj	249.949	.	r	4A 4cc# 4ee
=74	=74	=74	=74	=74	=74
4I	C:maj	250.784	.	r	4C 4e 4g
4IV	F:maj	251.62	.	r	4F 4a 4cc
4V	G:maj	252.455	.	r	4G 4b 4dd
4VI	A:maj	253.291	.	r	4A 4cc# 4ee
=75	=75	=75	=75	=75	=75
1IV7	F:maj7	254.126	newline	r	1F 1a 1cc 1ee
=76	=76	=76	=76	=76	=76
1iii	E:min	257.553	.	r	1E 1g 1b
=77	=77	=77	=77	=77	=77
1VI	A:maj	260.981	.	r	1A 1cc# 1ee
=78	=78	=78	=78	=78	=78
1I	C:maj	264.408	newline	r	1C 1e 1g
=79	=79	=79	=79	=79	=79
1IIe	D:maj/2	267.825	.	r	1D 1f# 1a
=80	=80	=80	=80	=80	=80
*>J_outro	*>J_outro	*>J_outro	*>J_outro	*>J_outro	*>J_outro
*E:	*E:	*	*	*	*E:
1I	E:maj	271.242	newline	r	1E 1g# 1b
=81	=81	=81	=81	=81	=81
1I	E:maj	274.609	.	r	1E 1g# 1b
=82	=82	=82	=82	=82	=82
1I	E:maj	277.976	.	r	1E 1g# 1b
=83	=83	=83	=83	=83	=83
1I	E:maj	281.343	.	r	1E 1g# 1b
=84	=84	=84	=84	=84	=84
*>E_fadeout	*>E_fadeout	*>E_fadeout	*>E_fadeout	*>E_fadeout	*>E_fadeout
1I	E:maj	284.709	newline	r	1E 1g# 1b
=85	=85	=85	=85	=85	=85
1I	E:maj	288.072	.	r	1E 1g# 1b
=86	=86	=86	=86	=86	=86
1I	E:maj	291.434	.	r	1E 1g# 1b
=87	=87	=87	=87	=87	=87
1I	E:maj	294.796	.	r	1E 1g# 1b
=88	=88	=88	=88	=88	=88
1I	E:maj	298.159	.	r	1E 1g# 1b
=89	=89	=89	=89	=89	=89
1I	E:maj	301.521	.	r	1E 1g# 1b
=90	=90	=90	=90	=90	=90
1I	E:maj	304.883	.	r	1E 1g# 1b
=91	=91	=91	=91	=91	=91
1I	E:maj	308.246	.	r	1E 1g# 1b
1r;	N	311.608	.	r	1r;
1r;	N	315.143	.	r	1r;
*-	*-	*-	*-	*-	*-
!!!OTL: Space Oddity
!!!COC: David Bowie
!!!BillboardChartDate: 1973/04/21
!!!BillboardPeak: 15
!!!BillboardWeeksOnChart: 14
!!!SampleTargetRank: 22
!!!SampleActualRank: 21
!!!SampleID#: 0086
!!!RDF**harmony: **recip + pitch class of root + harmonic quality
!!!RDF**harte: Chris Harte's syntax, used by MIREX
!!!RDF**phrase: newline = linebreak in original McGill transcription
!!!RDF**timestamp: McGill audio timestamp in seconds
!!!RDF**leadinstrument: original McGill primary instrumentation annotation
!!!RDT: 2017/01/12/
!!!ENC: Nathaniel Condit-Schultz
!!!EST: Awating manual error checking and editing.
